; generated by Slic3r 1.1.1 on 2014-05-06 at 03:04:19

; perimeters extrusion width = 0.50mm
; infill extrusion width = 0.84mm
; solid infill extrusion width = 0.84mm
; top infill extrusion width = 0.84mm

G21 ; set units to millimeters
M107
M190 S95 ; wait for bed temperature to be reached
M104 S235 ; set temperature
G28 ; home all axes
G1 Z5 F5000 ; lift nozzle

M109 S235 ; wait for temperature to be reached
G90 ; use absolute coordinates
M83 ; use relative distances for extrusion
G1 F3000.000 E-8.00000
G1 Z0.650 F12000.000
G1 X-7.783 Y26.057 F12000.000
G1 Z0.150 F12000.000
G1 E8.00000 F3000.000
G1 X-31.048 Y15.096 E0.45551 F2880.000
G1 X-31.749 Y14.695 E0.01430
G1 X-32.416 Y14.241 E0.01430
G1 X-33.046 Y13.736 E0.01429
G1 X-33.634 Y13.182 E0.01431
G1 X-34.177 Y12.585 E0.01429
G1 X-34.671 Y11.946 E0.01430
G1 X-35.114 Y11.271 E0.01430
G1 X-35.502 Y10.563 E0.01431
G1 X-35.834 Y9.827 E0.01429
G1 X-36.114 Y9.042 E0.01477
G1 X-36.384 Y7.737 E0.02360
G1 X-36.305 Y-20.081 E0.49272
G1 X-36.051 Y-20.988 E0.01667
G1 X-35.765 Y-21.743 E0.01430
G1 X-35.421 Y-22.473 E0.01430
G1 X-35.020 Y-23.174 E0.01430
G1 X-34.566 Y-23.841 E0.01430
G1 X-34.061 Y-24.471 E0.01429
G1 X-33.507 Y-25.059 E0.01431
G1 X-32.910 Y-25.602 E0.01429
G1 X-32.271 Y-26.096 E0.01430
G1 X-31.596 Y-26.539 E0.01430
G1 X-30.888 Y-26.927 E0.01431
G1 X-30.470 Y-27.120 E0.00815
G1 X-29.658 Y-27.325 E0.01483
G1 X-20.356 Y-27.909 E0.16508
G1 X20.523 Y-27.903 E0.72405
G1 X29.681 Y-27.231 E0.16264
G1 X30.470 Y-27.028 E0.01443
G1 X30.848 Y-26.846 E0.00744
G1 X31.549 Y-26.445 E0.01430
G1 X32.216 Y-25.991 E0.01430
G1 X32.846 Y-25.486 E0.01429
G1 X33.434 Y-24.932 E0.01431
G1 X33.977 Y-24.335 E0.01429
G1 X34.471 Y-23.696 E0.01430
G1 X34.914 Y-23.021 E0.01430
G1 X35.302 Y-22.313 E0.01431
G1 X35.634 Y-21.577 E0.01429
G1 X35.907 Y-20.817 E0.01431
G1 X36.119 Y-20.038 E0.01430
G1 X36.270 Y-19.245 E0.01430
G1 X36.358 Y-18.443 E0.01430
G1 X36.384 Y-17.725 E0.01272
G1 X36.382 Y6.065 E0.42137
G1 X36.344 Y6.871 E0.01429
G1 X36.242 Y7.668 E0.01423
G1 X36.076 Y8.466 E0.01444
G1 X35.851 Y9.238 E0.01423
G1 X35.565 Y9.993 E0.01430
G1 X35.221 Y10.723 E0.01430
G1 X34.820 Y11.424 E0.01430
G1 X34.366 Y12.091 E0.01430
G1 X33.861 Y12.721 E0.01429
G1 X33.307 Y13.309 E0.01431
G1 X32.710 Y13.852 E0.01429
G1 X32.071 Y14.346 E0.01430
G1 X31.396 Y14.789 E0.01430
G1 X30.712 Y15.166 E0.01384
G1 X7.766 Y26.064 E0.44992
G1 X6.531 Y26.626 E0.02404
G1 X5.255 Y27.089 E0.02403
G1 X3.947 Y27.451 E0.02403
G1 X2.615 Y27.708 E0.02403
G1 X1.266 Y27.861 E0.02404
G1 X-0.090 Y27.907 E0.02403
G1 X-1.445 Y27.847 E0.02404
G1 X-2.792 Y27.680 E0.02403
G1 X-4.122 Y27.409 E0.02403
G1 X-5.426 Y27.034 E0.02403
G1 X-6.696 Y26.557 E0.02404
G1 X-7.715 Y26.088 E0.01986
G1 X-30.874 Y15.178 F9600.000 E-7.60000
G1 F3000.000 E-0.40000
G1 Z0.650 F12000.000
G1 X-15.259 Y7.407 F12000.000
G1 Z0.150 F12000.000
G1 E8.00000 F3000.000
G1 X-15.849 Y7.520 E0.01065 F1728.000
G1 X-16.450 Y7.482 E0.01066
G1 X-17.022 Y7.296 E0.01065
G1 X-17.530 Y6.974 E0.01065
G1 X-17.941 Y6.536 E0.01065
G1 X-18.231 Y6.008 E0.01066
G1 X-18.381 Y5.426 E0.01065
G1 X-18.381 Y4.824 E0.01065
G1 X-18.231 Y4.242 E0.01065
G1 X-17.941 Y3.714 E0.01066
G1 X-17.530 Y3.276 E0.01065
G1 X-17.022 Y2.954 E0.01065
G1 X-16.450 Y2.768 E0.01065
G1 X-15.849 Y2.730 E0.01066
G1 X-15.259 Y2.843 E0.01065
G1 X-14.714 Y3.099 E0.01066
G1 X-14.251 Y3.482 E0.01065
G1 X-13.897 Y3.969 E0.01065
G1 X-13.676 Y4.528 E0.01065
G1 X-13.600 Y5.125 E0.01065
G1 X-13.676 Y5.722 E0.01065
G1 X-13.897 Y6.281 E0.01065
G1 X-14.251 Y6.768 E0.01065
G1 X-14.714 Y7.151 E0.01065
G1 X-15.191 Y7.375 E0.00933
G1 X-15.347 Y7.135 F12000.000
G1 X-15.867 Y7.234 E0.00938 F1728.000
G1 X-16.396 Y7.201 E0.00938
G1 X-16.900 Y7.037 E0.00938
G1 X-17.347 Y6.753 E0.00938
G1 X-17.710 Y6.367 E0.00938
G1 X-17.965 Y5.903 E0.00938
G1 X-18.097 Y5.390 E0.00938
G1 X-18.097 Y4.860 E0.00938
G1 X-17.965 Y4.347 E0.00938
G1 X-17.710 Y3.883 E0.00938
G1 X-17.347 Y3.497 E0.00938
G1 X-16.900 Y3.213 E0.00938
G1 X-16.396 Y3.049 E0.00938
G1 X-15.867 Y3.016 E0.00938
G1 X-15.347 Y3.115 E0.00938
G1 X-14.868 Y3.341 E0.00938
G1 X-14.459 Y3.678 E0.00938
G1 X-14.148 Y4.107 E0.00938
G1 X-13.953 Y4.599 E0.00938
G1 X-13.887 Y5.125 E0.00938
G1 X-13.953 Y5.651 E0.00938
G1 X-14.148 Y6.143 E0.00938
G1 X-14.459 Y6.572 E0.00938
G1 X-14.868 Y6.909 E0.00938
G1 X-15.279 Y7.103 E0.00806
G1 X-15.471 Y7.619 F12000.000
G1 X-15.867 Y7.234 F9600.000 E-0.16396
G1 X-16.396 Y7.201 F9600.000 E-0.15729
G1 X-16.900 Y7.037 F9600.000 E-0.15727
G1 X-17.347 Y6.753 F9600.000 E-0.15725
G1 X-17.710 Y6.367 F9600.000 E-0.15727
G1 X-17.965 Y5.903 F9600.000 E-0.15729
G1 X-18.097 Y5.390 F9600.000 E-0.15727
G1 X-18.097 Y4.860 F9600.000 E-0.15727
G1 X-17.965 Y4.347 F9600.000 E-0.15727
G1 X-17.710 Y3.883 F9600.000 E-0.15729
G1 X-17.347 Y3.497 F9600.000 E-0.15727
G1 X-16.900 Y3.213 F9600.000 E-0.15725
G1 X-16.396 Y3.049 F9600.000 E-0.15728
G1 X-15.867 Y3.016 F9600.000 E-0.15729
G1 X-15.347 Y3.115 F9600.000 E-0.15725
G1 X-14.868 Y3.341 F9600.000 E-0.15729
G1 X-14.459 Y3.678 F9600.000 E-0.15726
G1 X-14.148 Y4.107 F9600.000 E-0.15727
G1 X-13.953 Y4.599 F9600.000 E-0.15728
G1 X-13.887 Y5.125 F9600.000 E-0.15727
G1 X-13.953 Y5.651 F9600.000 E-0.15727
G1 X-14.148 Y6.143 F9600.000 E-0.15728
G1 X-14.459 Y6.572 F9600.000 E-0.15727
G1 X-14.868 Y6.909 F9600.000 E-0.15726
G1 X-15.279 Y7.103 F9600.000 E-0.13503
G1 F3000.000 E-4.08377
G1 Z0.650 F12000.000
G1 X-15.849 Y-16.980 F12000.000
G1 Z0.150 F12000.000
G1 E8.00000 F3000.000
G1 X-16.450 Y-17.018 E0.01066 F1728.000
G1 X-17.022 Y-17.204 E0.01065
G1 X-17.530 Y-17.526 E0.01065
G1 X-17.941 Y-17.964 E0.01065
G1 X-18.231 Y-18.492 E0.01066
G1 X-18.381 Y-19.074 E0.01065
G1 X-18.381 Y-19.676 E0.01065
G1 X-18.231 Y-20.258 E0.01065
G1 X-17.941 Y-20.786 E0.01066
G1 X-17.530 Y-21.224 E0.01065
G1 X-17.022 Y-21.546 E0.01065
G1 X-16.450 Y-21.732 E0.01065
G1 X-15.849 Y-21.770 E0.01066
G1 X-15.259 Y-21.657 E0.01065
G1 X-14.714 Y-21.401 E0.01066
G1 X-14.251 Y-21.018 E0.01065
G1 X-13.897 Y-20.531 E0.01065
G1 X-13.676 Y-19.972 E0.01065
G1 X-13.600 Y-19.375 E0.01065
G1 X-13.676 Y-18.778 E0.01065
G1 X-13.897 Y-18.219 E0.01065
G1 X-14.251 Y-17.732 E0.01065
G1 X-14.714 Y-17.349 E0.01065
G1 X-15.259 Y-17.093 E0.01065
G1 X-15.776 Y-16.994 E0.00932
G1 X-15.867 Y-17.266 F12000.000
G1 X-16.396 Y-17.299 E0.00938 F1728.000
G1 X-16.900 Y-17.463 E0.00938
G1 X-17.347 Y-17.747 E0.00938
G1 X-17.710 Y-18.133 E0.00938
G1 X-17.965 Y-18.597 E0.00939
G1 X-18.097 Y-19.110 E0.00938
G1 X-18.097 Y-19.640 E0.00938
G1 X-17.965 Y-20.153 E0.00938
G1 X-17.710 Y-20.617 E0.00939
G1 X-17.347 Y-21.003 E0.00938
G1 X-16.900 Y-21.287 E0.00938
G1 X-16.396 Y-21.451 E0.00938
G1 X-15.867 Y-21.484 E0.00938
G1 X-15.347 Y-21.385 E0.00938
G1 X-14.868 Y-21.159 E0.00938
G1 X-14.459 Y-20.822 E0.00938
G1 X-14.148 Y-20.393 E0.00938
G1 X-13.953 Y-19.901 E0.00938
G1 X-13.887 Y-19.375 E0.00938
G1 X-13.953 Y-18.849 E0.00938
G1 X-14.148 Y-18.357 E0.00938
G1 X-14.459 Y-17.928 E0.00938
G1 X-14.868 Y-17.591 E0.00938
G1 X-15.347 Y-17.365 E0.00938
G1 X-15.794 Y-17.280 E0.00805
G1 X-16.108 Y-16.828 F12000.000
G1 X-16.396 Y-17.299 F9600.000 E-0.16399
G1 X-16.900 Y-17.463 F9600.000 E-0.15728
G1 X-17.347 Y-17.747 F9600.000 E-0.15726
G1 X-17.710 Y-18.133 F9600.000 E-0.15726
G1 X-17.965 Y-18.597 F9600.000 E-0.15731
G1 X-18.097 Y-19.110 F9600.000 E-0.15724
G1 X-18.097 Y-19.640 F9600.000 E-0.15729
G1 X-17.965 Y-20.153 F9600.000 E-0.15724
G1 X-17.710 Y-20.617 F9600.000 E-0.15731
G1 X-17.347 Y-21.003 F9600.000 E-0.15726
G1 X-16.900 Y-21.287 F9600.000 E-0.15726
G1 X-16.396 Y-21.451 F9600.000 E-0.15727
G1 X-15.867 Y-21.484 F9600.000 E-0.15729
G1 X-15.347 Y-21.385 F9600.000 E-0.15726
G1 X-14.868 Y-21.159 F9600.000 E-0.15729
G1 X-14.459 Y-20.822 F9600.000 E-0.15726
G1 X-14.148 Y-20.393 F9600.000 E-0.15728
G1 X-13.953 Y-19.901 F9600.000 E-0.15727
G1 X-13.887 Y-19.375 F9600.000 E-0.15728
G1 X-13.953 Y-18.849 F9600.000 E-0.15728
G1 X-14.148 Y-18.357 F9600.000 E-0.15727
G1 X-14.459 Y-17.928 F9600.000 E-0.15727
G1 X-14.868 Y-17.591 F9600.000 E-0.15726
G1 X-15.347 Y-17.365 F9600.000 E-0.15729
G1 X-15.794 Y-17.280 F9600.000 E-0.13499
G1 F3000.000 E-4.08375
G1 Z0.650 F12000.000
G1 X13.619 Y-19.074 F12000.000
G1 Z0.150 F12000.000
G1 E8.00000 F3000.000
G1 X13.619 Y-19.676 E0.01065 F1728.000
G1 X13.769 Y-20.258 E0.01065
G1 X14.059 Y-20.786 E0.01066
G1 X14.470 Y-21.224 E0.01065
G1 X14.978 Y-21.546 E0.01065
G1 X15.550 Y-21.732 E0.01065
G1 X16.151 Y-21.770 E0.01066
G1 X16.741 Y-21.657 E0.01065
G1 X17.286 Y-21.401 E0.01066
G1 X17.749 Y-21.018 E0.01065
G1 X18.103 Y-20.531 E0.01065
G1 X18.324 Y-19.972 E0.01065
G1 X18.400 Y-19.375 E0.01065
G1 X18.324 Y-18.778 E0.01065
G1 X18.103 Y-18.219 E0.01065
G1 X17.749 Y-17.732 E0.01065
G1 X17.286 Y-17.349 E0.01065
G1 X16.741 Y-17.093 E0.01066
G1 X16.151 Y-16.980 E0.01065
G1 X15.550 Y-17.018 E0.01066
G1 X14.978 Y-17.204 E0.01065
G1 X14.470 Y-17.526 E0.01065
G1 X14.059 Y-17.964 E0.01065
G1 X13.769 Y-18.492 E0.01066
G1 X13.638 Y-19.002 E0.00932
G1 X13.903 Y-19.110 F12000.000
G1 X13.903 Y-19.640 E0.00938 F1728.000
G1 X14.035 Y-20.153 E0.00938
G1 X14.290 Y-20.617 E0.00939
G1 X14.653 Y-21.003 E0.00938
G1 X15.100 Y-21.287 E0.00938
G1 X15.604 Y-21.451 E0.00938
G1 X16.133 Y-21.484 E0.00938
G1 X16.653 Y-21.385 E0.00938
G1 X17.132 Y-21.159 E0.00938
G1 X17.541 Y-20.822 E0.00938
G1 X17.852 Y-20.393 E0.00938
G1 X18.047 Y-19.901 E0.00938
G1 X18.113 Y-19.375 E0.00938
G1 X18.047 Y-18.849 E0.00938
G1 X17.852 Y-18.357 E0.00938
G1 X17.541 Y-17.928 E0.00938
G1 X17.132 Y-17.591 E0.00938
G1 X16.653 Y-17.365 E0.00938
G1 X16.133 Y-17.266 E0.00938
G1 X15.604 Y-17.299 E0.00938
G1 X15.100 Y-17.463 E0.00938
G1 X14.653 Y-17.747 E0.00938
G1 X14.290 Y-18.133 E0.00938
G1 X14.035 Y-18.597 E0.00939
G1 X13.922 Y-19.037 E0.00805
G1 X13.451 Y-19.323 F12000.000
G1 X15.550 Y2.768 F12000.000
G1 X16.151 Y2.730 E0.01066 F1728.000
G1 X16.741 Y2.843 E0.01065
G1 X17.286 Y3.099 E0.01066
G1 X17.749 Y3.482 E0.01065
G1 X18.103 Y3.969 E0.01065
G1 X18.324 Y4.528 E0.01065
G1 X18.400 Y5.125 E0.01065
G1 X18.324 Y5.722 E0.01065
G1 X18.103 Y6.281 E0.01065
G1 X17.749 Y6.768 E0.01065
G1 X17.286 Y7.151 E0.01065
G1 X16.741 Y7.407 E0.01066
G1 X16.151 Y7.520 E0.01065
G1 X15.550 Y7.482 E0.01066
G1 X14.978 Y7.296 E0.01065
G1 X14.470 Y6.974 E0.01065
G1 X14.059 Y6.536 E0.01065
G1 X13.769 Y6.008 E0.01066
G1 X13.619 Y5.426 E0.01065
G1 X13.619 Y4.824 E0.01065
G1 X13.769 Y4.242 E0.01065
G1 X14.059 Y3.714 E0.01066
G1 X14.470 Y3.276 E0.01065
G1 X14.978 Y2.954 E0.01065
G1 X15.479 Y2.791 E0.00933
G1 X15.604 Y3.049 F12000.000
G1 X16.133 Y3.016 E0.00938 F1728.000
G1 X16.653 Y3.115 E0.00938
G1 X17.132 Y3.341 E0.00938
G1 X17.541 Y3.678 E0.00938
G1 X17.852 Y4.107 E0.00938
G1 X18.047 Y4.599 E0.00938
G1 X18.113 Y5.125 E0.00938
G1 X18.047 Y5.651 E0.00938
G1 X17.852 Y6.143 E0.00938
G1 X17.541 Y6.572 E0.00938
G1 X17.132 Y6.909 E0.00938
G1 X16.653 Y7.135 E0.00938
G1 X16.133 Y7.234 E0.00938
G1 X15.604 Y7.201 E0.00938
G1 X15.100 Y7.037 E0.00938
G1 X14.653 Y6.753 E0.00938
G1 X14.290 Y6.367 E0.00938
G1 X14.035 Y5.903 E0.00938
G1 X13.903 Y5.390 E0.00938
G1 X13.903 Y4.860 E0.00938
G1 X14.035 Y4.347 E0.00938
G1 X14.290 Y3.883 E0.00938
G1 X14.653 Y3.497 E0.00938
G1 X15.100 Y3.213 E0.00938
G1 X15.533 Y3.072 E0.00805
G1 X15.788 Y2.584 F12000.000
G1 X3.284 Y6.245 F12000.000
G1 X3.397 Y7.099 E0.01526 F1728.000
G1 X3.397 Y13.151 E0.10719
G1 X3.284 Y14.005 E0.01526
G1 X2.944 Y14.825 E0.01572
G1 X2.404 Y15.529 E0.01572
G1 X1.700 Y16.069 E0.01572
G1 X0.880 Y16.409 E0.01572
G1 X0.000 Y16.525 E0.01572
G1 X-0.880 Y16.409 E0.01572
G1 X-1.686 Y16.075 E0.01544
G1 X-2.404 Y15.530 E0.01597
G1 X-2.944 Y14.825 E0.01574
G1 X-3.284 Y14.005 E0.01572
G1 X-3.397 Y13.151 E0.01526
G1 X-3.397 Y7.099 E0.10719
G1 X-3.284 Y6.245 E0.01526
G1 X-2.944 Y5.425 E0.01572
G1 X-2.404 Y4.721 E0.01572
G1 X-1.700 Y4.181 E0.01572
G1 X-0.880 Y3.841 E0.01572
G1 X0.000 Y3.725 E0.01572
G1 X0.880 Y3.841 E0.01572
G1 X1.700 Y4.181 E0.01572
G1 X2.404 Y4.721 E0.01572
G1 X2.944 Y5.425 E0.01572
G1 X3.255 Y6.176 E0.01439
G1 X3.007 Y6.319 F12000.000
G1 X3.113 Y7.118 E0.01426 F1728.000
G1 X3.113 Y13.132 E0.10653
G1 X3.007 Y13.931 E0.01426
G1 X2.696 Y14.682 E0.01440
G1 X2.202 Y15.327 E0.01440
G1 X1.557 Y15.821 E0.01440
G1 X0.806 Y16.132 E0.01440
G1 X0.000 Y16.238 E0.01440
G1 X-0.806 Y16.132 E0.01440
G1 X-1.543 Y15.827 E0.01413
G1 X-2.201 Y15.327 E0.01465
G1 X-2.696 Y14.682 E0.01440
G1 X-3.007 Y13.931 E0.01440
G1 X-3.113 Y13.132 E0.01426
G1 X-3.113 Y7.118 E0.10653
G1 X-3.007 Y6.319 E0.01426
G1 X-2.696 Y5.568 E0.01440
G1 X-2.202 Y4.923 E0.01440
G1 X-1.557 Y4.429 E0.01440
G1 X-0.806 Y4.118 E0.01440
G1 X0.000 Y4.012 E0.01440
G1 X0.806 Y4.118 E0.01440
G1 X1.557 Y4.429 E0.01440
G1 X2.202 Y4.923 E0.01440
G1 X2.696 Y5.568 E0.01440
G1 X2.979 Y6.250 E0.01307
G1 X3.484 Y6.470 F12000.000
G1 X14.310 Y13.478 F12000.000
G1 X14.200 Y14.034 E0.01003 F2880.000
G1 X13.888 Y15.138 E0.02031
G1 X13.492 Y16.213 E0.02031
G1 X13.012 Y17.255 E0.02031
G1 X12.451 Y18.255 E0.02031
G1 X11.814 Y19.209 E0.02031
G1 X11.104 Y20.109 E0.02031
G1 X10.331 Y20.946 E0.02018
G1 X9.484 Y21.729 E0.02044
G1 X8.584 Y22.439 E0.02031
G1 X7.630 Y23.076 E0.02031
G1 X6.630 Y23.637 E0.02031
G1 X5.588 Y24.117 E0.02031
G1 X4.513 Y24.513 E0.02031
G1 X3.409 Y24.825 E0.02031
G1 X2.284 Y25.048 E0.02031
G1 X1.146 Y25.183 E0.02031
G1 X0.000 Y25.228 E0.02031
G1 X-1.146 Y25.183 E0.02031
G1 X-2.284 Y25.048 E0.02031
G1 X-3.409 Y24.825 E0.02031
G1 X-4.513 Y24.513 E0.02031
G1 X-5.588 Y24.117 E0.02031
G1 X-6.630 Y23.637 E0.02031
G1 X-7.630 Y23.076 E0.02031
G1 X-8.584 Y22.439 E0.02031
G1 X-9.484 Y21.729 E0.02031
G1 X-10.326 Y20.951 E0.02031
G1 X-11.104 Y20.109 E0.02031
G1 X-11.814 Y19.209 E0.02031
G1 X-12.451 Y18.255 E0.02031
G1 X-13.012 Y17.255 E0.02031
G1 X-13.492 Y16.213 E0.02031
G1 X-13.888 Y15.138 E0.02031
G1 X-14.200 Y14.034 E0.02031
G1 X-14.310 Y13.478 E0.01003
G1 X-19.959 Y13.478 E0.10006
G1 X-19.959 Y-25.228 E0.68558
G1 X-11.531 Y-25.228 E0.14928
G1 X-10.388 Y-25.047 E0.02050
G1 X-9.385 Y-24.536 E0.01994
G1 X-8.589 Y-23.740 E0.01994
G1 X-8.078 Y-22.737 E0.01994
G1 X-7.897 Y-21.594 E0.02050
G1 X-7.897 Y-18.854 E0.04852
G1 X-7.726 Y-17.233 E0.02888
G1 X-7.216 Y-15.662 E0.02925
G1 X-6.390 Y-14.232 E0.02925
G1 X-5.285 Y-13.005 E0.02925
G1 X-3.949 Y-12.035 E0.02925
G1 X-2.441 Y-11.363 E0.02925
G1 X-0.826 Y-11.020 E0.02925
G1 X0.826 Y-11.020 E0.02925
G1 X2.441 Y-11.363 E0.02925
G1 X3.949 Y-12.035 E0.02925
G1 X5.285 Y-13.005 E0.02925
G1 X6.390 Y-14.232 E0.02925
G1 X7.216 Y-15.662 E0.02925
G1 X7.726 Y-17.233 E0.02925
G1 X7.897 Y-18.854 E0.02888
G1 X7.897 Y-21.594 E0.04852
G1 X8.078 Y-22.737 E0.02050
G1 X8.589 Y-23.740 E0.01994
G1 X9.385 Y-24.536 E0.01994
G1 X10.388 Y-25.047 E0.01994
G1 X11.531 Y-25.228 E0.02050
G1 X19.959 Y-25.228 E0.14928
G1 X19.959 Y13.478 E0.68558
G1 X14.385 Y13.478 E0.09873
G1 X14.543 Y13.762 F12000.000
G1 X14.476 Y14.100 E0.00610 F2160.000
G1 X14.159 Y15.226 E0.02071
G1 X13.754 Y16.322 E0.02070
G1 X13.265 Y17.384 E0.02070
G1 X12.694 Y18.404 E0.02070
G1 X12.044 Y19.376 E0.02070
G1 X11.320 Y20.294 E0.02070
G1 X10.532 Y21.147 E0.02058
G1 X9.669 Y21.946 E0.02083
G1 X8.751 Y22.669 E0.02070
G1 X7.779 Y23.319 E0.02070
G1 X6.759 Y23.890 E0.02070
G1 X5.697 Y24.379 E0.02070
G1 X4.600 Y24.784 E0.02070
G1 X3.475 Y25.101 E0.02070
G1 X2.329 Y25.329 E0.02070
G1 X1.168 Y25.467 E0.02070
G1 X0.000 Y25.512 E0.02070
G1 X-1.168 Y25.467 E0.02070
G1 X-2.329 Y25.329 E0.02070
G1 X-3.475 Y25.101 E0.02070
G1 X-4.600 Y24.784 E0.02070
G1 X-5.697 Y24.379 E0.02070
G1 X-6.759 Y23.890 E0.02070
G1 X-7.779 Y23.319 E0.02070
G1 X-8.751 Y22.669 E0.02070
G1 X-9.669 Y21.945 E0.02070
G1 X-10.527 Y21.152 E0.02070
G1 X-11.320 Y20.294 E0.02070
G1 X-12.044 Y19.376 E0.02070
G1 X-12.694 Y18.404 E0.02070
G1 X-13.265 Y17.384 E0.02070
G1 X-13.754 Y16.322 E0.02070
G1 X-14.159 Y15.226 E0.02070
G1 X-14.476 Y14.100 E0.02071
G1 X-14.543 Y13.762 E0.00610
G1 X-20.244 Y13.762 E0.10096
G1 X-20.244 Y-25.512 E0.69564
G1 X-11.509 Y-25.512 E0.15471
G1 X-10.299 Y-25.321 E0.02169
G1 X-9.216 Y-24.769 E0.02153
G1 X-8.356 Y-23.909 E0.02154
G1 X-7.804 Y-22.826 E0.02153
G1 X-7.613 Y-21.616 E0.02169
G1 X-7.613 Y-18.869 E0.04866
G1 X-7.447 Y-17.292 E0.02808
