; generated by Slic3r 1.1.1 on 2014-05-06 at 04:34:36

; perimeters extrusion width = 0.50mm
; infill extrusion width = 0.84mm
; solid infill extrusion width = 0.84mm
; top infill extrusion width = 0.84mm

G21 ; set units to millimeters
M107
M190 S95 ; wait for bed temperature to be reached
M104 S230 ; set temperature
G28 ; home all axes
G1 Z5 F5000 ; lift nozzle

M109 S230 ; wait for temperature to be reached
G90 ; use absolute coordinates
M83 ; use relative distances for extrusion
G1 F3000.000 E-8.00000
G1 Z0.650 F12000.000
G1 X0.145 Y-17.382 F12000.000
G1 Z0.150 F12000.000
G1 E8.00000 F3000.000
G1 X0.475 Y-17.452 E0.00473 F3600.000
G1 X0.740 Y-17.570 E0.00407
G1 X0.995 Y-17.752 E0.00440
G1 X1.221 Y-18.003 E0.00473
G1 X1.376 Y-18.275 E0.00440
G1 X1.465 Y-18.552 E0.00408
G1 X1.535 Y-19.194 E0.00907
G1 X1.535 Y-21.859 E0.03742
G1 X1.571 Y-22.327 E0.00658
G1 X1.877 Y-24.258 E0.02745
G1 X2.167 Y-25.151 E0.01318
G1 X3.162 Y-27.103 E0.03075
G1 X3.714 Y-27.862 E0.01318
G1 X5.263 Y-29.411 E0.03075
G1 X6.022 Y-29.963 E0.01318
G1 X7.974 Y-30.958 E0.03075
G1 X8.867 Y-31.248 E0.01318
G1 X10.798 Y-31.554 E0.02745
G1 X11.266 Y-31.590 E0.00658
G1 X22.827 Y-31.590 E0.16230
G1 X25.093 Y-29.324 E0.04499
G1 X25.251 Y-29.307 E0.00223
G1 X29.047 Y-31.738 E0.06328
G1 X32.335 Y-30.222 E0.05083
G1 X33.297 Y-29.693 E0.01541
G1 X34.404 Y-28.954 E0.01868
G1 X35.258 Y-28.269 E0.01538
G1 X35.892 Y-27.683 E0.01211
G1 X36.644 Y-26.883 E0.01541
G1 X37.467 Y-25.839 E0.01867
G1 X38.069 Y-24.922 E0.01539
G1 X38.490 Y-24.170 E0.01211
G1 X39.047 Y-22.961 E0.01868
G1 X39.418 Y-21.929 E0.01540
G1 X39.652 Y-21.099 E0.01211
G1 X39.875 Y-20.025 E0.01540
G1 X40.013 Y-18.937 E0.01539
G1 X40.065 Y-17.784 E0.01621
G1 X40.065 Y6.034 E0.33436
G1 X40.031 Y6.954 E0.01293
G1 X39.912 Y8.040 E0.01533
G1 X39.651 Y9.353 E0.01880
G1 X39.346 Y10.402 E0.01534
G1 X39.047 Y11.211 E0.01211
G1 X38.490 Y12.420 E0.01868
G1 X38.069 Y13.172 E0.01211
G1 X37.467 Y14.089 E0.01539
G1 X36.795 Y14.956 E0.01539
G1 X36.058 Y15.767 E0.01539
G1 X35.081 Y16.671 E0.01869
G1 X34.214 Y17.342 E0.01539
G1 X33.497 Y17.821 E0.01211
G1 X32.335 Y18.472 E0.01869
G1 X29.046 Y19.987 E0.05084
G1 X25.251 Y17.557 E0.06327
G1 X25.093 Y17.574 E0.00223
G1 X22.827 Y19.840 E0.04499
G1 X18.903 Y19.840 E0.05508
G1 X18.792 Y19.911 E0.00185
G1 X18.627 Y20.248 E0.00526
G1 X17.937 Y21.480 E0.01982
G1 X17.030 Y22.853 E0.02311
G1 X15.866 Y24.330 E0.02640
G1 X14.749 Y25.526 E0.02298
G1 X13.528 Y26.643 E0.02323
G1 X12.418 Y27.518 E0.01984
G1 X11.054 Y28.440 E0.02311
G1 X9.623 Y29.252 E0.02311
G1 X8.131 Y29.950 E0.02311
G1 X6.590 Y30.528 E0.02311
G1 X5.008 Y30.984 E0.02311
G1 X3.396 Y31.314 E0.02311
G1 X1.762 Y31.517 E0.02311
G1 X-0.117 Y31.590 E0.02640
G1 X-1.762 Y31.517 E0.02311
G1 X-3.164 Y31.351 E0.01982
G1 X-4.780 Y31.038 E0.02311
G1 X-6.367 Y30.600 E0.02311
G1 X-8.131 Y29.950 E0.02640
G1 X-9.622 Y29.252 E0.02311
G1 X-11.054 Y28.440 E0.02311
G1 X-12.418 Y27.518 E0.02311
G1 X-13.527 Y26.643 E0.01982
G1 X-14.742 Y25.533 E0.02311
G1 X-15.866 Y24.330 E0.02311
G1 X-17.030 Y22.853 E0.02640
G1 X-17.937 Y21.480 E0.02311
G1 X-18.627 Y20.248 E0.01982
G1 X-18.792 Y19.911 E0.00526
G1 X-18.903 Y19.840 E0.00185
G1 X-22.827 Y19.840 E0.05508
G1 X-25.037 Y17.631 E0.04387
G1 X-25.194 Y17.614 E0.00223
G1 X-29.047 Y20.079 E0.06422
G1 X-32.745 Y18.365 E0.05721
G1 X-33.497 Y17.943 E0.01211
G1 X-34.414 Y17.342 E0.01539
G1 X-35.281 Y16.670 E0.01539
G1 X-36.092 Y15.933 E0.01539
G1 X-36.844 Y15.133 E0.01541
G1 X-37.529 Y14.279 E0.01539
G1 X-38.146 Y13.372 E0.01539
G1 X-38.690 Y12.420 E0.01540
G1 X-39.247 Y11.211 E0.01868
G1 X-39.633 Y10.130 E0.01612
G1 X-39.962 Y8.910 E0.01774
G1 X-40.065 Y8.130 E0.01104
G1 X-40.065 Y-19.880 E0.39322
G1 X-39.962 Y-20.660 E0.01104
G1 X-39.633 Y-21.880 E0.01774
G1 X-39.158 Y-23.177 E0.01940
G1 X-38.690 Y-24.170 E0.01540
G1 X-38.146 Y-25.122 E0.01540
G1 X-37.529 Y-26.029 E0.01539
G1 X-36.844 Y-26.883 E0.01538
G1 X-36.092 Y-27.683 E0.01541
G1 X-35.458 Y-28.269 E0.01211
G1 X-34.604 Y-28.954 E0.01538
G1 X-33.697 Y-29.571 E0.01539
G1 X-32.535 Y-30.222 E0.01869
G1 X-29.047 Y-31.830 E0.05393
G1 X-25.194 Y-29.364 E0.06421
G1 X-25.037 Y-29.381 E0.00223
G1 X-22.827 Y-31.590 E0.04387
G1 X-11.266 Y-31.590 E0.16230
G1 X-10.799 Y-31.554 E0.00657
G1 X-8.867 Y-31.248 E0.02746
G1 X-7.974 Y-30.958 E0.01318
G1 X-6.022 Y-29.963 E0.03075
G1 X-5.263 Y-29.411 E0.01318
G1 X-3.714 Y-27.862 E0.03075
G1 X-3.162 Y-27.103 E0.01318
G1 X-2.167 Y-25.151 E0.03075
G1 X-1.877 Y-24.258 E0.01318
G1 X-1.571 Y-22.327 E0.02745
G1 X-1.535 Y-21.859 E0.00658
G1 X-1.535 Y-19.194 E0.03742
G1 X-1.470 Y-18.575 E0.00874
G1 X-1.376 Y-18.275 E0.00440
G1 X-1.207 Y-17.983 E0.00473
G1 X-0.995 Y-17.752 E0.00440
G1 X-0.760 Y-17.581 E0.00407
G1 X-0.452 Y-17.444 E0.00473
G1 X-0.169 Y-17.384 E0.00407
G1 X0.070 Y-17.382 E0.00335
G1 X0.169 Y-17.156 F12000.000
G1 X0.545 Y-17.236 E0.00540 F3600.000
G1 X0.853 Y-17.374 E0.00474
G1 X1.147 Y-17.584 E0.00507
G1 X1.404 Y-17.869 E0.00540
G1 X1.573 Y-18.162 E0.00474
G1 X1.687 Y-18.504 E0.00507
G1 X1.760 Y-19.182 E0.00956
G1 X1.760 Y-21.851 E0.03747
G1 X1.795 Y-22.300 E0.00633
G1 X2.097 Y-24.205 E0.02708
G1 X2.376 Y-25.065 E0.01269
G1 X3.354 Y-26.985 E0.03025
G1 X3.885 Y-27.716 E0.01268
G1 X5.409 Y-29.239 E0.03025
G1 X6.140 Y-29.771 E0.01269
G1 X8.060 Y-30.749 E0.03025
G1 X8.920 Y-31.028 E0.01268
G1 X10.825 Y-31.330 E0.02708
G1 X11.274 Y-31.365 E0.00633
G1 X22.734 Y-31.365 E0.16087
G1 X25.062 Y-29.037 E0.04622
G1 X25.219 Y-29.020 E0.00223
G1 X29.065 Y-31.482 E0.06409
G1 X32.237 Y-30.019 E0.04903
G1 X33.183 Y-29.499 E0.01517
G1 X34.268 Y-28.775 E0.01831
G1 X35.109 Y-28.100 E0.01514
G1 X35.736 Y-27.521 E0.01199
G1 X36.475 Y-26.734 E0.01516
G1 X37.282 Y-25.710 E0.01830
G1 X37.874 Y-24.808 E0.01514
G1 X38.292 Y-24.063 E0.01199
G1 X38.837 Y-22.879 E0.01830
G1 X39.203 Y-21.864 E0.01515
G1 X39.434 Y-21.042 E0.01199
G1 X39.654 Y-19.985 E0.01515
G1 X39.789 Y-18.915 E0.01514
G1 X39.840 Y-17.781 E0.01593
G1 X39.840 Y6.031 E0.33430
G1 X39.807 Y6.941 E0.01278
G1 X39.689 Y8.009 E0.01508
G1 X39.433 Y9.296 E0.01842
G1 X39.133 Y10.329 E0.01510
G1 X38.837 Y11.129 E0.01198
G1 X38.292 Y12.314 E0.01831
G1 X37.874 Y13.058 E0.01199
G1 X37.282 Y13.960 E0.01514
G1 X36.621 Y14.813 E0.01514
G1 X35.896 Y15.611 E0.01514
G1 X34.938 Y16.496 E0.01832
G1 X34.085 Y17.157 E0.01514
G1 X33.376 Y17.632 E0.01198
G1 X32.237 Y18.269 E0.01832
G1 X29.064 Y19.731 E0.04905
G1 X25.220 Y17.270 E0.06408
G1 X25.062 Y17.287 E0.00223
G1 X22.734 Y19.615 E0.04622
G1 X18.759 Y19.615 E0.05580
G1 X18.648 Y19.686 E0.00185
G1 X18.429 Y20.141 E0.00709
G1 X17.743 Y21.366 E0.01970
G1 X16.846 Y22.725 E0.02286
G1 X15.698 Y24.180 E0.02603
G1 X14.592 Y25.363 E0.02273
G1 X13.385 Y26.469 E0.02298
G1 X12.282 Y27.338 E0.01971
G1 X10.933 Y28.250 E0.02287
G1 X9.516 Y29.054 E0.02286
G1 X8.041 Y29.743 E0.02286
G1 X6.516 Y30.315 E0.02286
G1 X4.951 Y30.766 E0.02286
G1 X3.356 Y31.092 E0.02286
G1 X1.740 Y31.293 E0.02286
G1 X-0.113 Y31.365 E0.02603
G1 X-1.515 Y31.310 E0.01970
G1 X-3.133 Y31.128 E0.02287
G1 X-4.732 Y30.819 E0.02286
G1 X-6.302 Y30.385 E0.02286
G1 X-8.041 Y29.743 E0.02602
G1 X-9.516 Y29.054 E0.02286
G1 X-10.933 Y28.250 E0.02286
G1 X-12.282 Y27.338 E0.02286
G1 X-13.384 Y26.469 E0.01970
G1 X-14.586 Y25.370 E0.02286
G1 X-15.698 Y24.180 E0.02286
G1 X-16.846 Y22.725 E0.02603
G1 X-17.743 Y21.366 E0.02286
G1 X-18.429 Y20.141 E0.01970
G1 X-18.648 Y19.686 E0.00709
G1 X-18.759 Y19.615 E0.00185
G1 X-22.734 Y19.615 E0.05580
G1 X-25.005 Y17.344 E0.04510
G1 X-25.163 Y17.326 E0.00223
G1 X-29.065 Y19.823 E0.06503
G1 X-32.639 Y18.167 E0.05530
G1 X-33.383 Y17.749 E0.01199
G1 X-34.285 Y17.157 E0.01514
G1 X-35.138 Y16.496 E0.01514
G1 X-35.936 Y15.771 E0.01514
G1 X-36.675 Y14.984 E0.01516
G1 X-37.350 Y14.143 E0.01514
G1 X-37.957 Y13.251 E0.01515
G1 X-38.491 Y12.314 E0.01515
G1 X-39.037 Y11.129 E0.01831
G1 X-39.417 Y10.066 E0.01585
G1 X-39.741 Y8.866 E0.01746
G1 X-39.840 Y8.115 E0.01063
G1 X-39.840 Y-19.865 E0.39281
G1 X-39.741 Y-20.616 E0.01063
G1 X-39.417 Y-21.816 E0.01746
G1 X-38.951 Y-23.087 E0.01900
G1 X-38.491 Y-24.064 E0.01515
G1 X-37.957 Y-25.001 E0.01515
G1 X-37.350 Y-25.893 E0.01515
G1 X-36.675 Y-26.734 E0.01514
G1 X-35.936 Y-27.521 E0.01516
G1 X-35.309 Y-28.100 E0.01199
G1 X-34.468 Y-28.775 E0.01514
G1 X-33.576 Y-29.382 E0.01515
G1 X-32.437 Y-30.019 E0.01832
G1 X-29.064 Y-31.574 E0.05214
G1 X-25.163 Y-29.076 E0.06502
G1 X-25.006 Y-29.093 E0.00223
G1 X-22.734 Y-31.365 E0.04511
G1 X-11.275 Y-31.365 E0.16087
G1 X-10.826 Y-31.330 E0.00632
G1 X-8.920 Y-31.028 E0.02709
G1 X-8.060 Y-30.749 E0.01268
G1 X-6.140 Y-29.771 E0.03025
G1 X-5.409 Y-29.239 E0.01269
G1 X-3.885 Y-27.716 E0.03025
G1 X-3.354 Y-26.985 E0.01268
G1 X-2.376 Y-25.065 E0.03025
G1 X-2.097 Y-24.205 E0.01269
G1 X-1.795 Y-22.300 E0.02708
G1 X-1.760 Y-21.851 E0.00633
G1 X-1.760 Y-19.182 E0.03747
G1 X-1.692 Y-18.528 E0.00923
G1 X-1.582 Y-18.183 E0.00507
G1 X-1.390 Y-17.850 E0.00540
G1 X-1.164 Y-17.600 E0.00474
G1 X-0.874 Y-17.385 E0.00507
G1 X-0.522 Y-17.229 E0.00540
G1 X-0.192 Y-17.159 E0.00474
G1 X0.094 Y-17.156 E0.00402
G1 X0.192 Y-16.931 F12000.000
G1 X0.615 Y-17.021 E0.00606 F3600.000
G1 X0.966 Y-17.178 E0.00540
G1 X1.298 Y-17.416 E0.00573
G1 X1.587 Y-17.736 E0.00606
G1 X1.789 Y-18.091 E0.00573
G1 X1.913 Y-18.480 E0.00573
G1 X1.984 Y-19.158 E0.00957
G1 X1.985 Y-21.842 E0.03767
G1 X2.019 Y-22.274 E0.00608
G1 X2.316 Y-24.153 E0.02671
G1 X2.585 Y-24.978 E0.01219
G1 X3.547 Y-26.867 E0.02975
G1 X4.057 Y-27.569 E0.01218
G1 X5.556 Y-29.068 E0.02976
G1 X6.258 Y-29.578 E0.01219
G1 X8.147 Y-30.540 E0.02976
G1 X8.972 Y-30.809 E0.01219
G1 X10.851 Y-31.106 E0.02670
G1 X11.283 Y-31.140 E0.00608
G1 X22.640 Y-31.140 E0.15944
G1 X25.031 Y-28.750 E0.04745
G1 X25.188 Y-28.733 E0.00223
G1 X29.082 Y-31.226 E0.06490
G1 X32.138 Y-29.817 E0.04724
G1 X33.070 Y-29.305 E0.01492
G1 X34.132 Y-28.595 E0.01793
G1 X34.959 Y-27.932 E0.01489
G1 X35.580 Y-27.359 E0.01186
G1 X36.307 Y-26.584 E0.01491
G1 X37.098 Y-25.581 E0.01793
G1 X37.680 Y-24.695 E0.01490
G1 X38.093 Y-23.957 E0.01186
G1 X38.628 Y-22.797 E0.01793
G1 X38.987 Y-21.799 E0.01490
G1 X39.217 Y-20.985 E0.01186
G1 X39.432 Y-19.946 E0.01490
G1 X39.565 Y-18.893 E0.01490
G1 X39.615 Y-17.779 E0.01565
G1 X39.615 Y6.029 E0.33424
G1 X39.582 Y6.928 E0.01262
G1 X39.466 Y7.978 E0.01484
G1 X39.215 Y9.239 E0.01805
G1 X38.920 Y10.255 E0.01485
G1 X38.628 Y11.047 E0.01186
G1 X38.093 Y12.207 E0.01793
G1 X37.680 Y12.945 E0.01186
G1 X37.098 Y13.831 E0.01490
G1 X36.447 Y14.670 E0.01490
G1 X35.734 Y15.455 E0.01489
G1 X34.795 Y16.322 E0.01794
G1 X33.956 Y16.973 E0.01489
G1 X33.254 Y17.442 E0.01186
G1 X32.139 Y18.067 E0.01795
G1 X29.081 Y19.475 E0.04726
G1 X25.188 Y16.983 E0.06489
G1 X25.031 Y17.000 E0.00223
G1 X22.640 Y19.390 E0.04746
G1 X18.615 Y19.390 E0.05651
G1 X18.504 Y19.461 E0.00185
G1 X18.230 Y20.035 E0.00893
G1 X17.436 Y21.436 E0.02261
G1 X16.533 Y22.771 E0.02262
G1 X15.530 Y24.031 E0.02261
G1 X14.436 Y25.201 E0.02248
G1 X13.242 Y26.295 E0.02273
G1 X12.146 Y27.158 E0.01959
G1 X10.811 Y28.061 E0.02262
G1 X9.410 Y28.855 E0.02261
G1 X7.951 Y29.537 E0.02262
G1 X6.442 Y30.103 E0.02262
G1 X4.895 Y30.548 E0.02261
G1 X3.316 Y30.871 E0.02261
G1 X1.718 Y31.068 E0.02261
G1 X-0.108 Y31.140 E0.02565
G1 X-1.502 Y31.085 E0.01958
G1 X-3.103 Y30.905 E0.02262
G1 X-4.684 Y30.599 E0.02261
G1 X-6.236 Y30.170 E0.02261
G1 X-7.951 Y29.537 E0.02565
G1 X-9.410 Y28.855 E0.02262
G1 X-10.811 Y28.061 E0.02261
G1 X-12.146 Y27.158 E0.02262
G1 X-13.241 Y26.295 E0.01958
G1 X-14.430 Y25.208 E0.02261
G1 X-15.530 Y24.031 E0.02261
G1 X-16.533 Y22.771 E0.02261
G1 X-17.436 Y21.436 E0.02262
G1 X-18.230 Y20.035 E0.02261
G1 X-18.504 Y19.461 E0.00893
G1 X-18.615 Y19.390 E0.00185
G1 X-22.640 Y19.390 E0.05651
G1 X-24.974 Y17.056 E0.04633
G1 X-25.132 Y17.039 E0.00223
G1 X-29.082 Y19.567 E0.06584
G1 X-32.532 Y17.968 E0.05338
G1 X-33.270 Y17.555 E0.01186
G1 X-34.156 Y16.973 E0.01490
G1 X-34.995 Y16.322 E0.01490
G1 X-35.780 Y15.609 E0.01489
G1 X-36.507 Y14.834 E0.01491
G1 X-37.170 Y14.007 E0.01489
G1 X-37.767 Y13.129 E0.01490
G1 X-38.293 Y12.207 E0.01490
G1 X-38.828 Y11.047 E0.01793
G1 X-39.201 Y10.003 E0.01557
G1 X-39.520 Y8.821 E0.01718
G1 X-39.615 Y8.100 E0.01021
G1 X-39.615 Y-19.850 E0.39239
G1 X-39.520 Y-20.571 E0.01021
G1 X-39.201 Y-21.753 E0.01718
G1 X-38.828 Y-22.797 E0.01557
G1 X-38.391 Y-23.764 E0.01489
G1 X-37.767 Y-24.879 E0.01794
G1 X-37.170 Y-25.757 E0.01490
G1 X-36.507 Y-26.584 E0.01489
G1 X-35.780 Y-27.359 E0.01491
G1 X-35.159 Y-27.932 E0.01186
G1 X-34.332 Y-28.595 E0.01489
G1 X-33.454 Y-29.192 E0.01490
G1 X-32.339 Y-29.816 E0.01794
G1 X-29.082 Y-31.318 E0.05035
G1 X-25.132 Y-28.789 E0.06584
G1 X-24.975 Y-28.806 E0.00223
G1 X-22.640 Y-31.140 E0.04634
G1 X-11.284 Y-31.140 E0.15943
G1 X-10.852 Y-31.106 E0.00608
G1 X-8.972 Y-30.809 E0.02672
G1 X-8.147 Y-30.540 E0.01219
G1 X-6.258 Y-29.578 E0.02976
G1 X-5.556 Y-29.068 E0.01219
G1 X-4.057 Y-27.569 E0.02976
G1 X-3.547 Y-26.867 E0.01218
G1 X-2.585 Y-24.978 E0.02975
G1 X-2.316 Y-24.153 E0.01219
G1 X-2.019 Y-22.274 E0.02671
G1 X-1.985 Y-21.842 E0.00608
G1 X-1.984 Y-19.158 E0.03767
G1 X-1.913 Y-18.480 E0.00957
G1 X-1.789 Y-18.091 E0.00573
G1 X-1.573 Y-17.717 E0.00606
G1 X-1.298 Y-17.416 E0.00573
G1 X-0.987 Y-17.189 E0.00540
G1 X-0.592 Y-17.014 E0.00606
G1 X-0.216 Y-16.934 E0.00540
G1 X0.117 Y-16.931 E0.00468
G1 X0.216 Y-16.706 F12000.000
G1 X0.685 Y-16.806 E0.00673 F3600.000
G1 X1.100 Y-16.993 E0.00640
G1 X1.450 Y-17.247 E0.00607
G1 X1.756 Y-17.584 E0.00640
G1 X1.996 Y-17.999 E0.00673
G1 X2.134 Y-18.433 E0.00640
G1 X2.209 Y-19.146 E0.01006
G1 X2.210 Y-21.833 E0.03771
G1 X2.243 Y-22.247 E0.00584
G1 X2.536 Y-24.100 E0.02633
G1 X2.793 Y-24.892 E0.01169
G1 X3.739 Y-26.749 E0.02926
G1 X4.229 Y-27.422 E0.01169
G1 X5.703 Y-28.896 E0.02926
G1 X6.376 Y-29.386 E0.01169
G1 X8.233 Y-30.332 E0.02926
G1 X9.025 Y-30.589 E0.01169
G1 X10.878 Y-30.882 E0.02633
G1 X11.292 Y-30.915 E0.00584
G1 X22.547 Y-30.915 E0.15801
G1 X25.000 Y-28.463 E0.04869
G1 X25.157 Y-28.446 E0.00223
G1 X29.100 Y-30.970 E0.06572
G1 X32.040 Y-29.614 E0.04545
G1 X32.956 Y-29.111 E0.01467
G1 X33.996 Y-28.416 E0.01756
G1 X34.810 Y-27.764 E0.01464
G1 X35.424 Y-27.196 E0.01174
G1 X36.139 Y-26.435 E0.01466
G1 X36.913 Y-25.453 E0.01756
G1 X37.486 Y-24.581 E0.01465
G1 X37.894 Y-23.851 E0.01174
G1 X38.418 Y-22.715 E0.01756
G1 X38.772 Y-21.733 E0.01465
G1 X38.999 Y-20.929 E0.01174
G1 X39.210 Y-19.906 E0.01465
G1 X39.341 Y-18.871 E0.01465
G1 X39.390 Y-17.777 E0.01538
G1 X39.390 Y6.027 E0.33417
G1 X39.357 Y6.914 E0.01247
G1 X39.243 Y7.947 E0.01459
G1 X38.998 Y9.182 E0.01768
G1 X38.707 Y10.181 E0.01460
G1 X38.418 Y10.965 E0.01173
G1 X37.894 Y12.101 E0.01756
G1 X37.486 Y12.831 E0.01174
G1 X36.913 Y13.703 E0.01465
G1 X36.273 Y14.527 E0.01465
G1 X35.571 Y15.299 E0.01465
G1 X34.652 Y16.148 E0.01757
G1 X33.828 Y16.788 E0.01465
G1 X33.133 Y17.252 E0.01173
G1 X32.040 Y17.864 E0.01758
G1 X29.099 Y19.219 E0.04546
G1 X25.157 Y16.696 E0.06571
G1 X25.000 Y16.713 E0.00223
G1 X22.547 Y19.165 E0.04869
G1 X18.471 Y19.165 E0.05723
G1 X18.360 Y19.236 E0.00185
G1 X18.031 Y19.929 E0.01077
G1 X17.246 Y21.315 E0.02236
G1 X16.354 Y22.635 E0.02237
G1 X15.361 Y23.881 E0.02236
G1 X14.280 Y25.039 E0.02223
G1 X13.099 Y26.121 E0.02249
G1 X12.010 Y26.979 E0.01946
G1 X10.690 Y27.871 E0.02237
G1 X9.304 Y28.656 E0.02236
G1 X7.861 Y29.331 E0.02237
G1 X6.369 Y29.890 E0.02237
G1 X4.838 Y30.330 E0.02236
G1 X3.277 Y30.649 E0.02236
G1 X1.696 Y30.844 E0.02237
G1 X-0.104 Y30.915 E0.02528
G1 X-1.696 Y30.844 E0.02237
G1 X-3.072 Y30.681 E0.01945
G1 X-4.636 Y30.379 E0.02236
G1 X-6.171 Y29.954 E0.02236
G1 X-7.861 Y29.331 E0.02528
G1 X-9.304 Y28.656 E0.02237
G1 X-10.690 Y27.871 E0.02236
G1 X-12.010 Y26.979 E0.02237
G1 X-13.098 Y26.121 E0.01945
G1 X-14.274 Y25.046 E0.02237
G1 X-15.361 Y23.881 E0.02237
G1 X-16.354 Y22.635 E0.02236
G1 X-17.246 Y21.315 E0.02237
G1 X-18.031 Y19.929 E0.02236
G1 X-18.360 Y19.236 E0.01077
G1 X-18.471 Y19.165 E0.00185
G1 X-22.547 Y19.165 E0.05723
G1 X-24.943 Y16.769 E0.04757
G1 X-25.101 Y16.752 E0.00223
G1 X-29.100 Y19.311 E0.06666
G1 X-32.426 Y17.769 E0.05147
G1 X-33.156 Y17.361 E0.01174
G1 X-34.028 Y16.788 E0.01465
G1 X-34.852 Y16.148 E0.01465
G1 X-35.624 Y15.446 E0.01465
